src/com/lilithsthrone/res/statusEffects/dirtyBody.svg

<?xml version="1.0" encoding="UTF-8" standalone="no"?>
<!-- Created with Inkscape (http://www.inkscape.org/) -->

<svg
   xmlns:dc="http://purl.org/dc/elements/1.1/"
   xmlns:cc="http://creativecommons.org/ns#"
   xmlns:rdf="http://www.w3.org/1999/02/22-rdf-syntax-ns#"
   xmlns:svg="http://www.w3.org/2000/svg"
   xmlns="http://www.w3.org/2000/svg"
   xmlns:sodipodi="http://sodipodi.sourceforge.net/DTD/sodipodi-0.dtd"
   xmlns:inkscape="http://www.inkscape.org/namespaces/inkscape"
   width="100%"
   height="100%"
   viewBox="0 0 64.000001 64.000001"
   id="svg4311"
   version="1.1"
   inkscape:version="0.91 r13725"
   sodipodi:docname="dirtyBody.svg">
  <defs
     id="defs4313">
    <inkscape:path-effect
       effect="powerstroke"
       id="path-effect4214"
       is_visible="true"
       offset_points="0,0.5"
       sort_points="true"
       interpolator_type="CubicBezierJohan"
       interpolator_beta="0.2"
       start_linecap_type="zerowidth"
       linejoin_type="round"
       miter_limit="4"
       end_linecap_type="zerowidth"
       cusp_linecap_type="round" />
    <inkscape:path-effect
       effect="powerstroke"
       id="path-effect4210"
       is_visible="true"
       offset_points="0,0.5"
       sort_points="true"
       interpolator_type="CubicBezierJohan"
       interpolator_beta="0.2"
       start_linecap_type="zerowidth"
       linejoin_type="round"
       miter_limit="4"
       end_linecap_type="zerowidth"
       cusp_linecap_type="round" />
    <inkscape:path-effect
       effect="powerstroke"
       id="path-effect4206"
       is_visible="true"
       offset_points="0,0.5"
       sort_points="true"
       interpolator_type="CubicBezierJohan"
       interpolator_beta="0.2"
       start_linecap_type="zerowidth"
       linejoin_type="round"
       miter_limit="4"
       end_linecap_type="zerowidth"
       cusp_linecap_type="round" />
    <inkscape:path-effect
       effect="powerstroke"
       id="path-effect4202"
       is_visible="true"
       offset_points="0,0.5"
       sort_points="true"
       interpolator_type="CubicBezierJohan"
       interpolator_beta="0.2"
       start_linecap_type="zerowidth"
       linejoin_type="round"
       miter_limit="4"
       end_linecap_type="zerowidth"
       cusp_linecap_type="round" />
    <inkscape:path-effect
       effect="powerstroke"
       id="path-effect4198"
       is_visible="true"
       offset_points="0,0.5"
       sort_points="true"
       interpolator_type="CubicBezierJohan"
       interpolator_beta="0.2"
       start_linecap_type="zerowidth"
       linejoin_type="round"
       miter_limit="4"
       end_linecap_type="zerowidth"
       cusp_linecap_type="round" />
    <inkscape:path-effect
       effect="powerstroke"
       id="path-effect4194"
       is_visible="true"
       offset_points="0,0.5"
       sort_points="true"
       interpolator_type="CubicBezierJohan"
       interpolator_beta="0.2"
       start_linecap_type="zerowidth"
       linejoin_type="round"
       miter_limit="4"
       end_linecap_type="zerowidth"
       cusp_linecap_type="round" />
    <inkscape:path-effect
       effect="powerstroke"
       id="path-effect4190"
       is_visible="true"
       offset_points="0,0.5"
       sort_points="true"
       interpolator_type="CubicBezierJohan"
       interpolator_beta="0.2"
       start_linecap_type="zerowidth"
       linejoin_type="round"
       miter_limit="4"
       end_linecap_type="zerowidth"
       cusp_linecap_type="round" />
    <inkscape:path-effect
       effect="powerstroke"
       id="path-effect4186"
       is_visible="true"
       offset_points="0,0.5"
       sort_points="true"
       interpolator_type="CubicBezierJohan"
       interpolator_beta="0.2"
       start_linecap_type="zerowidth"
       linejoin_type="round"
       miter_limit="4"
       end_linecap_type="zerowidth"
       cusp_linecap_type="round" />
    <inkscape:path-effect
       effect="powerstroke"
       id="path-effect4182"
       is_visible="true"
       offset_points="0,0.5"
       sort_points="true"
       interpolator_type="CubicBezierJohan"
       interpolator_beta="0.2"
       start_linecap_type="zerowidth"
       linejoin_type="round"
       miter_limit="4"
       end_linecap_type="zerowidth"
       cusp_linecap_type="round" />
    <inkscape:path-effect
       effect="powerstroke"
       id="path-effect4178"
       is_visible="true"
       offset_points="0,0.5"
       sort_points="true"
       interpolator_type="CubicBezierJohan"
       interpolator_beta="0.2"
       start_linecap_type="zerowidth"
       linejoin_type="round"
       miter_limit="4"
       end_linecap_type="zerowidth"
       cusp_linecap_type="round" />
    <inkscape:path-effect
       effect="powerstroke"
       id="path-effect4174"
       is_visible="true"
       offset_points="0,0.5"
       sort_points="true"
       interpolator_type="CubicBezierJohan"
       interpolator_beta="0.2"
       start_linecap_type="zerowidth"
       linejoin_type="round"
       miter_limit="4"
       end_linecap_type="zerowidth"
       cusp_linecap_type="round" />
    <inkscape:path-effect
       effect="powerstroke"
       id="path-effect4170"
       is_visible="true"
       offset_points="0,0.5"
       sort_points="true"
       interpolator_type="CubicBezierJohan"
       interpolator_beta="0.2"
       start_linecap_type="zerowidth"
       linejoin_type="round"
       miter_limit="4"
       end_linecap_type="zerowidth"
       cusp_linecap_type="round" />
    <inkscape:path-effect
       effect="powerstroke"
       id="path-effect4166"
       is_visible="true"
       offset_points="0,0.5"
       sort_points="true"
       interpolator_type="CubicBezierJohan"
       interpolator_beta="0.2"
       start_linecap_type="zerowidth"
       linejoin_type="round"
       miter_limit="4"
       end_linecap_type="zerowidth"
       cusp_linecap_type="round" />
    <inkscape:path-effect
       effect="powerstroke"
       id="path-effect4162"
       is_visible="true"
       offset_points="0,0.5"
       sort_points="true"
       interpolator_type="CubicBezierJohan"
       interpolator_beta="0.2"
       start_linecap_type="zerowidth"
       linejoin_type="round"
       miter_limit="4"
       end_linecap_type="zerowidth"
       cusp_linecap_type="round" />
    <inkscape:path-effect
       effect="powerstroke"
       id="path-effect4183"
       is_visible="true"
       offset_points="0.238227,0.51804536"
       sort_points="true"
       interpolator_type="Linear"
       interpolator_beta="0.2"
       start_linecap_type="zerowidth"
       linejoin_type="round"
       miter_limit="4"
       end_linecap_type="zerowidth"
       cusp_linecap_type="round" />
  </defs>
  <sodipodi:namedview
     id="base"
     pagecolor="#ffffff"
     bordercolor="#666666"
     borderopacity="1.0"
     inkscape:pageopacity="0.0"
     inkscape:pageshadow="2"
     inkscape:zoom="7.9195959"
     inkscape:cx="54.296633"
     inkscape:cy="48.622088"
     inkscape:document-units="px"
     inkscape:current-layer="layer5"
     showgrid="false"
     units="px"
     inkscape:window-width="2560"
     inkscape:window-height="1388"
     inkscape:window-x="-8"
     inkscape:window-y="-8"
     inkscape:window-maximized="1" />
  <metadata
     id="metadata4316">
    <rdf:RDF>
      <cc:Work
         rdf:about="">
        <dc:format>image/svg+xml</dc:format>
        <dc:type
           rdf:resource="http://purl.org/dc/dcmitype/StillImage" />
        <dc:title></dc:title>
      </cc:Work>
    </rdf:RDF>
  </metadata>
  <g
     inkscape:groupmode="layer"
     id="layer5"
     inkscape:label="Stage5"
     style="display:inline">
    <g
       id="g4199"
       transform="matrix(0.7974063,0,0,0.82717333,6.6297757,4.9432701)">
      <path
         sodipodi:nodetypes="cssssscsscsscssc"
         inkscape:connector-curvature="0"
         id="path4142"
         d="m 36.229063,31.03819 c 2.281268,6.381328 9.869521,5.263501 7.850635,13.872776 -1.882287,8.026769 -15.70783,14.094817 -15.316569,3.502107 0.231451,-6.266144 3.316719,-16.66516 -1.798777,-15.528937 -4.648277,1.032445 -4.324306,5.365359 -8.024753,5.055581 C 16.51902,37.737081 11.792251,35.267629 14.586763,31.162708 16.399759,28.499559 26.80436,30.075601 24.688011,27.708937 23.044973,25.399161 20.011801,25.21517 13.313517,24.893573 -0.97416495,24.207593 11.812602,3.5683 18.00706,9.5602096 c 3.840604,3.7150224 4.820205,9.8501764 10.308405,12.0925434 5.310771,1.429476 0.123601,-8.000233 0.75148,-10.863843 1.208199,-5.5103157 11.84829,-1.9114135 11.48925,0.828639 -0.378938,2.891897 -8.484762,10.111969 -4.504735,11.111097 6.542892,1.624681 4.636983,-3.705177 9.546031,-3.318782 3.811681,0.300019 9.695952,10.378675 3.227551,12.668357 C 42.249923,34.40568 34.704821,26.87328 36.229063,31.03819 Z"
         style="display:inline;fill:#fbfbf7;fill-opacity:1;fill-rule:evenodd;stroke:#000000;stroke-width:1;stroke-linecap:butt;stroke-linejoin:miter;stroke-miterlimit:4;stroke-dasharray:none;stroke-opacity:1" />
      <path
         sodipodi:nodetypes="ssss"
         inkscape:connector-curvature="0"
         id="path4146"
         d="M 22.271952,42.833312 C 20.596116,42.296169 7.232823,50.550295 6.1973351,55.835953 5.6403362,58.678986 10.768299,60.17965 12.74778,59.109834 19.00038,55.730596 23.628379,43.268071 22.271952,42.833312 Z"
         style="display:inline;fill:#fbfbf7;fill-opacity:1;fill-rule:evenodd;stroke:#000000;stroke-width:0.99999994px;stroke-linecap:butt;stroke-linejoin:miter;stroke-opacity:1" />
      <path
         sodipodi:nodetypes="ssss"
         inkscape:connector-curvature="0"
         id="path4146-9"
         d="M 42.442487,16.11333 C 43.419056,17.059933 53.441655,15.359479 55.046644,11.800324 55.90993,9.885932 52.896212,7.0948576 51.438835,7.2339824 46.835407,7.6734442 41.652046,15.347145 42.442487,16.11333 Z"
         style="display:inline;fill:#fbfbf7;fill-opacity:1;fill-rule:evenodd;stroke:#000000;stroke-width:0.99999994px;stroke-linecap:butt;stroke-linejoin:miter;stroke-opacity:1" />
      <path
         sodipodi:nodetypes="ssss"
         inkscape:connector-curvature="0"
         id="path4146-9-4"
         d="m 47.165902,36.114771 c -0.400704,0.944428 6.977894,8.619944 11.468058,9.268251 2.415163,0.348711 3.520705,-2.542827 2.556644,-3.678023 -3.045201,-3.58576 -13.700374,-6.354657 -14.024702,-5.590228 z"
         style="display:inline;fill:#fbfbf7;fill-opacity:1;fill-rule:evenodd;stroke:#000000;stroke-width:0.99999994px;stroke-linecap:butt;stroke-linejoin:miter;stroke-opacity:1" />
      <path
         sodipodi:nodetypes="sss"
         inkscape:connector-curvature="0"
         id="path4146-0"
         d="M 5.3393832,41.060552 C 8.3316305,44.772927 14.15773,41.982572 10.367967,37.229594 7.6181268,33.78085 2.5352338,37.581551 5.3393832,41.060552 Z"
         style="display:inline;fill:#fbfbf7;fill-opacity:1;fill-rule:evenodd;stroke:#000000;stroke-width:0.99999988px;stroke-linecap:butt;stroke-linejoin:miter;stroke-opacity:1" />
    </g>
  </g>
</svg>

<svg xmlns="http://www.w3.org/2000/svg" viewBox="0 0 64 64">
    <g fill="#fbfbf7" fill-rule="evenodd" stroke="#000">
        <path d="M36.23 31.038c2.28 6.382 9.869 5.264 7.85 13.873-1.883 8.027-15.708 14.095-15.317 3.502.232-6.266 3.317-16.665-1.799-15.529-4.648 1.033-4.324 5.365-8.024 5.056-2.421-.203-7.148-2.672-4.353-6.777 1.813-2.663 12.217-1.087 10.101-3.454-1.643-2.31-4.676-2.494-11.374-2.815-14.288-.686-1.501-21.326 4.693-15.334 3.84 3.715 4.82 9.85 10.308 12.093 5.311 1.43.124-8 .752-10.864 1.208-5.51 11.848-1.912 11.49.829-.38 2.891-8.486 10.112-4.506 11.11 6.543 1.625 4.637-3.705 9.546-3.318 3.812.3 9.696 10.379 3.228 12.668-6.575 2.328-14.12-5.205-12.596-1.04z" transform="matrix(.7974 0 0 .82717 6.63 4.943)"/>
        <path d="M22.272 42.833c-1.676-.537-15.04 7.717-16.075 13.003-.557 2.843 4.571 4.344 6.55 3.274C19 55.73 23.629 43.268 22.273 42.833zM42.442 16.113c.977.947 11-.754 12.605-4.313.863-1.914-2.15-4.705-3.608-4.566-4.604.44-9.787 8.113-8.997 8.88zM47.166 36.115c-.4.944 6.978 8.62 11.468 9.268 2.415.349 3.52-2.543 2.557-3.678-3.046-3.586-13.7-6.355-14.025-5.59zM5.34 41.06c2.992 3.713 8.818.923 5.028-3.83-2.75-3.45-7.833.352-5.029 3.83z" transform="matrix(.7974 0 0 .82717 6.63 4.943)"/>
    </g>
</svg>
